build/img/header/Green.svg

<svg width="864" height="784" fill="none" xmlns="http://www.w3.org/2000/svg"><g opacity=".4" filter="url(#filter0_f_74_1521)"><path d="M673.469 258.482l16.515 219.379-34.225 104.865-170.464 26.871-72.292-161.027-115.415 38.773-113.529-175.975L174 177.746l278.567-2.918 70.532 111.018 150.37-27.364z" fill="#43D9AD"/></g><defs><filter id="filter0_f_74_1521" x="0" y=".828" width="863.983" height="782.77" filterUnits="userSpaceOnUse" color-interpolation-filters="sRGB"><feFlood flood-opacity="0" result="BackgroundImageFix"/><feBlend in="SourceGraphic" in2="BackgroundImageFix" result="shape"/><feGaussianBlur stdDeviation="87" result="effect1_foregroundBlur_74_1521"/></filter></defs></svg>

<svg width="864" height="784" viewBox="0 0 864 784" fill="none" xmlns="http://www.w3.org/2000/svg">
<g opacity="0.4" filter="url(#filter0_f_74_1521)">
<path d="M673.469 258.482L689.984 477.861L655.759 582.726L485.295 609.597L413.003 448.57L297.588 487.343L184.059 311.368L174 177.746L452.567 174.828L523.099 285.846L673.469 258.482Z" fill="#43D9AD"/>
</g>
<defs>
<filter id="filter0_f_74_1521" x="0" y="0.827515" width="863.983" height="782.77" filterUnits="userSpaceOnUse" color-interpolation-filters="sRGB">
<feFlood flood-opacity="0" result="BackgroundImageFix"/>
<feBlend mode="normal" in="SourceGraphic" in2="BackgroundImageFix" result="shape"/>
<feGaussianBlur stdDeviation="87" result="effect1_foregroundBlur_74_1521"/>
</filter>
</defs>
</svg>
